icon-themes/sifr_svg/cmd/sc_square_rounded_unfilled.svg

<svg viewBox="0 0 16 16" xmlns="http://www.w3.org/2000/svg"><path d="m4 1c-1.662 0-3 1.338-3 3v8c0 1.662 1.338 3 3 3h8c1.662 0 3-1.338 3-3v-8c0-1.662-1.338-3-3-3zm0 2h8c.554 0 1 .446 1 1v8c0 .554-.446 1-1 1h-8c-.554 0-1-.446-1-1v-8c0-.554.446-1 1-1z" fill="#555753"/></svg>

<svg xmlns="http://www.w3.org/2000/svg" viewBox="0 0 16 16">
  <path
     style="fill:#555753"
     d="M 4 1 C 2.338 1 1 2.338 1 4 L 1 12 C 1 13.662 2.338 15 4 15 L 12 15 C 13.662 15 15 13.662 15 12 L 15 4 C 15 2.338 13.662 1 12 1 L 4 1 z M 4 3 L 12 3 C 12.554 3 13 3.446 13 4 L 13 12 C 13 12.554 12.554 13 12 13 L 4 13 C 3.446 13 3 12.554 3 12 L 3 4 C 3 3.446 3.446 3 4 3 z "
     />
</svg>
